; generated by Slic3r 1.33.8-prusa3d-win64 on 2017-03-24 at 00:03:06

; external perimeters extrusion width = 0.40mm
; perimeters extrusion width = 0.67mm
; infill extrusion width = 0.67mm
; solid infill extrusion width = 0.67mm
; top infill extrusion width = 0.67mm
; support material extrusion width = 0.40mm

M190 S90 ; set bed temperature and wait for it to be reached
M104 S220 ; set temperature
G28 X Y ; home X and Y
G29 ; autolevel
G1 Z5 F5000 ; lift nozzle

M109 S220 ; set temperature and wait for it to be reached
G21 ; set units to millimeters
G90 ; use absolute coordinates
M83 ; use relative distances for extrusion
G1 E-7.50000 F6000.00000 ; retract
G1 Z1.000 F2700.000 ; lift Z
G1 X87.140 Y55.564 F2700.000 ; move to first skirt point
G1 Z0.100 F2700.000 ; restore layer Z
G1 E7.00000 F6000.00000 ; unretract
M204 S50 ; adjust acceleration
G1 F2025
G1 X87.485 Y54.963 E0.01897 ; skirt
G1 X88.110 Y54.006 E0.03130 ; skirt
G1 X88.763 Y53.158 E0.02929 ; skirt
G1 X89.431 Y52.413 E0.02740 ; skirt
G1 X89.923 Y51.919 E0.01910 ; skirt
G1 X90.711 Y51.219 E0.02886 ; skirt
G1 X91.550 Y50.580 E0.02887 ; skirt
G1 X92.123 Y50.195 E0.01889 ; skirt
G1 X92.975 Y49.686 E0.02718 ; skirt
G1 X93.912 Y49.217 E0.02867 ; skirt
G1 X94.532 Y48.951 E0.01847 ; skirt
G1 X95.573 Y48.574 E0.03032 ; skirt
G1 X96.670 Y48.271 E0.03118 ; skirt
G1 X97.698 Y48.072 E0.02866 ; skirt
G1 X98.397 Y47.977 E0.01931 ; skirt
G1 X99.495 Y47.895 E0.03016 ; skirt
G1 X160.201 Y47.891 E1.66206 ; skirt
G1 X160.875 Y47.914 E0.01847 ; skirt
G1 X161.656 Y47.982 E0.02144 ; skirt
G1 X162.165 Y48.049 E0.01406 ; skirt
G1 X163.043 Y48.208 E0.02443 ; skirt
G1 X163.654 Y48.354 E0.01721 ; skirt
G1 X164.411 Y48.569 E0.02154 ; skirt
G1 X164.977 Y48.763 E0.01637 ; skirt
G1 X165.835 Y49.102 E0.02527 ; skirt
G1 X166.655 Y49.494 E0.02488 ; skirt
G1 X167.230 Y49.801 E0.01784 ; skirt
G1 X168.010 Y50.278 E0.02504 ; skirt
G1 X168.441 Y50.572 E0.01427 ; skirt
G1 X169.100 Y51.067 E0.02258 ; skirt
G1 X169.519 Y51.415 E0.01490 ; skirt
G1 X170.171 Y52.008 E0.02414 ; skirt
G1 X171.026 Y52.912 E0.03406 ; skirt
G1 X171.381 Y53.335 E0.01511 ; skirt
G1 X171.898 Y54.016 E0.02341 ; skirt
G1 X172.533 Y54.991 E0.03187 ; skirt
G1 X172.945 Y55.727 E0.02309 ; skirt
G1 X173.273 Y56.388 E0.02019 ; skirt
G1 X173.496 Y56.901 E0.01532 ; skirt
G1 X173.892 Y57.968 E0.03117 ; skirt
G1 X174.247 Y59.250 E0.03641 ; skirt
G1 X174.477 Y60.506 E0.03496 ; skirt
G1 X174.599 Y61.854 E0.03703 ; skirt
G1 X174.570 Y137.811 E2.07962 ; skirt
G1 X174.541 Y138.416 E0.01658 ; skirt
G1 X174.449 Y139.349 E0.02569 ; skirt
G1 X174.369 Y139.857 E0.01406 ; skirt
G1 X174.187 Y140.771 E0.02551 ; skirt
G1 X173.936 Y141.688 E0.02604 ; skirt
G1 X173.785 Y142.163 E0.01365 ; skirt
G1 X173.449 Y143.042 E0.02578 ; skirt
G1 X173.219 Y143.569 E0.01574 ; skirt
G1 X172.850 Y144.308 E0.02262 ; skirt
G1 X172.600 Y144.757 E0.01406 ; skirt
G1 X172.119 Y145.529 E0.02491 ; skirt
G1 X171.753 Y146.050 E0.01742 ; skirt
G1 X171.173 Y146.794 E0.02583 ; skirt
G1 X170.554 Y147.483 E0.02536 ; skirt
G1 X170.125 Y147.921 E0.01679 ; skirt
G1 X169.521 Y148.471 E0.02236 ; skirt
G1 X169.098 Y148.825 E0.01511 ; skirt
G1 X168.512 Y149.268 E0.02011 ; skirt
G1 X167.814 Y149.741 E0.02309 ; skirt
G1 X166.813 Y150.327 E0.03174 ; skirt
G1 X166.053 Y150.702 E0.02322 ; skirt
G1 X165.532 Y150.928 E0.01553 ; skirt
G1 X164.433 Y151.332 E0.03208 ; skirt
G1 X163.182 Y151.674 E0.03550 ; skirt
G1 X161.925 Y151.900 E0.03495 ; skirt
G1 X160.669 Y152.015 E0.03454 ; skirt
G1 X99.670 Y152.108 E1.67009 ; skirt
G1 X99.134 Y152.084 E0.01469 ; skirt
G1 X98.192 Y152.000 E0.02590 ; skirt
G1 X97.257 Y151.849 E0.02594 ; skirt
G1 X96.768 Y151.750 E0.01365 ; skirt
G1 X95.883 Y151.517 E0.02505 ; skirt
G1 X95.392 Y151.366 E0.01406 ; skirt
G1 X94.514 Y151.042 E0.02563 ; skirt
G1 X93.958 Y150.802 E0.01658 ; skirt
G1 X93.201 Y150.433 E0.02306 ; skirt
G1 X92.665 Y150.134 E0.01679 ; skirt
G1 X91.864 Y149.637 E0.02581 ; skirt
G1 X91.106 Y149.090 E0.02560 ; skirt
G1 X90.603 Y148.688 E0.01763 ; skirt
G1 X89.923 Y148.080 E0.02498 ; skirt
G1 X89.552 Y147.713 E0.01427 ; skirt
G1 X88.994 Y147.110 E0.02249 ; skirt
G1 X88.639 Y146.687 E0.01511 ; skirt
G1 X88.100 Y145.979 E0.02439 ; skirt
G1 X87.397 Y144.894 E0.03538 ; skirt
G1 X87.139 Y144.432 E0.01448 ; skirt
G1 X86.759 Y143.679 E0.02308 ; skirt
G1 X86.324 Y142.638 E0.03089 ; skirt
G1 X86.044 Y141.819 E0.02372 ; skirt
G1 X85.840 Y141.105 E0.02032 ; skirt
G1 X85.711 Y140.545 E0.01574 ; skirt
G1 X85.510 Y139.381 E0.03234 ; skirt
G1 X85.424 Y138.520 E0.02369 ; skirt
G1 X85.396 Y137.953 E0.01553 ; skirt
G1 X85.395 Y62.063 E2.07780 ; skirt
G1 X85.428 Y61.442 E0.01700 ; skirt
G1 X85.532 Y60.448 E0.02737 ; skirt
G1 X85.709 Y59.463 E0.02739 ; skirt
G1 X85.848 Y58.866 E0.01679 ; skirt
G1 X86.094 Y58.013 E0.02430 ; skirt
G1 X86.305 Y57.413 E0.01742 ; skirt
G1 X86.662 Y56.530 E0.02608 ; skirt
G1 X87.112 Y55.617 E0.02786 ; skirt
M204 S100 ; adjust acceleration
G1 X87.728 Y55.859 F2700.000 ; move to first skirt point
M204 S50 ; adjust acceleration
G1 F2025
G1 X88.292 Y54.914 E0.03011 ; skirt
G1 X88.652 Y54.381 E0.01763 ; skirt
G1 X89.274 Y53.574 E0.02789 ; skirt
G1 X89.919 Y52.854 E0.02647 ; skirt
G1 X90.380 Y52.394 E0.01783 ; skirt
G1 X91.136 Y51.722 E0.02768 ; skirt
G1 X91.940 Y51.110 E0.02769 ; skirt
G1 X92.481 Y50.747 E0.01783 ; skirt
G1 X93.299 Y50.260 E0.02606 ; skirt
G1 X94.197 Y49.810 E0.02750 ; skirt
G1 X94.775 Y49.563 E0.01722 ; skirt
G1 X95.774 Y49.201 E0.02908 ; skirt
G1 X96.827 Y48.911 E0.02991 ; skirt
G1 X97.813 Y48.720 E0.02748 ; skirt
G1 X98.473 Y48.631 E0.01823 ; skirt
G1 X99.526 Y48.553 E0.02893 ; skirt
G1 X160.201 Y48.549 E1.66120 ; skirt
G1 X160.807 Y48.570 E0.01661 ; skirt
G1 X161.578 Y48.636 E0.02118 ; skirt
G1 X162.048 Y48.697 E0.01297 ; skirt
G1 X162.904 Y48.851 E0.02380 ; skirt
G1 X163.472 Y48.987 E0.01601 ; skirt
G1 X164.204 Y49.194 E0.02082 ; skirt
G1 X164.743 Y49.379 E0.01560 ; skirt
G1 X165.573 Y49.706 E0.02442 ; skirt
G1 X166.365 Y50.085 E0.02404 ; skirt
G1 X166.906 Y50.375 E0.01682 ; skirt
G1 X167.659 Y50.836 E0.02419 ; skirt
G1 X168.063 Y51.112 E0.01337 ; skirt
G1 X168.700 Y51.590 E0.02181 ; skirt
G1 X169.093 Y51.916 E0.01398 ; skirt
G1 X169.723 Y52.490 E0.02333 ; skirt
G1 X170.547 Y53.364 E0.03290 ; skirt
G1 X170.874 Y53.756 E0.01398 ; skirt
G1 X171.373 Y54.415 E0.02262 ; skirt
G1 X171.978 Y55.345 E0.03038 ; skirt
G1 X172.360 Y56.030 E0.02147 ; skirt
G1 X172.677 Y56.668 E0.01951 ; skirt
G1 X172.889 Y57.157 E0.01459 ; skirt
G1 X173.267 Y58.174 E0.02971 ; skirt
G1 X173.607 Y59.405 E0.03497 ; skirt
G1 X173.825 Y60.604 E0.03336 ; skirt
G1 X173.942 Y61.905 E0.03577 ; skirt
G1 X173.911 Y137.797 E2.07784 ; skirt
G1 X173.885 Y138.366 E0.01560 ; skirt
G1 X173.795 Y139.269 E0.02482 ; skirt
G1 X173.721 Y139.744 E0.01317 ; skirt
G1 X173.545 Y140.627 E0.02465 ; skirt
G1 X173.162 Y141.950 E0.03771 ; skirt
G1 X172.837 Y142.799 E0.02490 ; skirt
G1 X172.620 Y143.294 E0.01479 ; skirt
G1 X172.267 Y144.001 E0.02166 ; skirt
G1 X172.033 Y144.422 E0.01317 ; skirt
G1 X171.568 Y145.168 E0.02407 ; skirt
G1 X171.223 Y145.658 E0.01641 ; skirt
G1 X170.668 Y146.372 E0.02475 ; skirt
G1 X170.065 Y147.043 E0.02471 ; skirt
G1 X169.660 Y147.454 E0.01580 ; skirt
G1 X169.071 Y147.990 E0.02181 ; skirt
G1 X168.679 Y148.317 E0.01398 ; skirt
G1 X168.106 Y148.749 E0.01963 ; skirt
G1 X167.456 Y149.188 E0.02147 ; skirt
G1 X166.502 Y149.746 E0.03026 ; skirt
G1 X165.761 Y150.112 E0.02264 ; skirt
G1 X165.272 Y150.323 E0.01459 ; skirt
G1 X164.230 Y150.706 E0.03037 ; skirt
G1 X163.022 Y151.035 E0.03430 ; skirt
G1 X161.822 Y151.250 E0.03335 ; skirt
G1 X160.609 Y151.359 E0.03336 ; skirt
G1 X99.683 Y151.450 E1.66809 ; skirt
G1 X99.180 Y151.427 E0.01378 ; skirt
G1 X98.274 Y151.346 E0.02492 ; skirt
G1 X96.920 Y151.110 E0.03761 ; skirt
G1 X96.065 Y150.885 E0.02421 ; skirt
G1 X95.605 Y150.743 E0.01317 ; skirt
G1 X94.757 Y150.430 E0.02476 ; skirt
G1 X94.227 Y150.201 E0.01580 ; skirt
G1 X93.502 Y149.848 E0.02208 ; skirt
G1 X92.998 Y149.566 E0.01580 ; skirt
G1 X92.230 Y149.090 E0.02474 ; skirt
G1 X91.493 Y148.556 E0.02493 ; skirt
G1 X91.024 Y148.182 E0.01641 ; skirt
G1 X90.362 Y147.589 E0.02433 ; skirt
G1 X90.021 Y147.251 E0.01317 ; skirt
G1 X89.472 Y146.657 E0.02214 ; skirt
G1 X89.145 Y146.264 E0.01398 ; skirt
G1 X88.624 Y145.580 E0.02356 ; skirt
G1 X87.955 Y144.543 E0.03377 ; skirt
G1 X87.717 Y144.117 E0.01337 ; skirt
G1 X87.351 Y143.389 E0.02230 ; skirt
G1 X86.932 Y142.383 E0.02983 ; skirt
G1 X86.673 Y141.624 E0.02197 ; skirt
G1 X86.477 Y140.937 E0.01954 ; skirt
G1 X86.355 Y140.403 E0.01499 ; skirt
G1 X86.163 Y139.294 E0.03083 ; skirt
G1 X86.081 Y138.469 E0.02269 ; skirt
G1 X86.054 Y137.930 E0.01479 ; skirt
G1 X86.054 Y62.078 E2.07675 ; skirt
G1 X86.084 Y61.501 E0.01580 ; skirt
G1 X86.184 Y60.540 E0.02644 ; skirt
G1 X86.354 Y59.596 E0.02626 ; skirt
G1 X86.484 Y59.034 E0.01580 ; skirt
G1 X86.722 Y58.210 E0.02348 ; skirt
G1 X86.921 Y57.645 E0.01641 ; skirt
G1 X87.267 Y56.792 E0.02520 ; skirt
G1 X87.701 Y55.912 E0.02686 ; skirt
M204 S100 ; adjust acceleration
G1 X88.317 Y56.154 F2700.000 ; move to first skirt point
M204 S50 ; adjust acceleration
G1 F2025
G1 X88.854 Y55.257 E0.02863 ; skirt
G1 X89.190 Y54.762 E0.01638 ; skirt
G1 X89.785 Y53.989 E0.02669 ; skirt
G1 X90.408 Y53.296 E0.02552 ; skirt
G1 X90.831 Y52.873 E0.01638 ; skirt
G1 X91.555 Y52.231 E0.02649 ; skirt
G1 X92.325 Y51.645 E0.02650 ; skirt
G1 X92.834 Y51.304 E0.01677 ; skirt
G1 X93.610 Y50.840 E0.02474 ; skirt
G1 X94.476 Y50.407 E0.02651 ; skirt
G1 X95.013 Y50.177 E0.01599 ; skirt
G1 X95.975 Y49.828 E0.02804 ; skirt
G1 X96.984 Y49.550 E0.02864 ; skirt
G1 X97.934 Y49.367 E0.02650 ; skirt
G1 X98.549 Y49.285 E0.01697 ; skirt
G1 X99.565 Y49.211 E0.02789 ; skirt
G1 X160.201 Y49.208 E1.66016 ; skirt
G1 X160.742 Y49.225 E0.01482 ; skirt
G1 X161.933 Y49.345 E0.03276 ; skirt
G1 X162.765 Y49.495 E0.02315 ; skirt
G1 X163.299 Y49.622 E0.01502 ; skirt
G1 X164.005 Y49.822 E0.02008 ; skirt
G1 X164.510 Y49.995 E0.01463 ; skirt
G1 X165.310 Y50.310 E0.02355 ; skirt
G1 X166.074 Y50.676 E0.02318 ; skirt
G1 X166.582 Y50.948 E0.01580 ; skirt
G1 X167.309 Y51.393 E0.02332 ; skirt
G1 X168.305 Y52.117 E0.03371 ; skirt
G1 X168.666 Y52.418 E0.01287 ; skirt
G1 X169.279 Y52.977 E0.02269 ; skirt
G1 X170.067 Y53.815 E0.03152 ; skirt
G1 X170.367 Y54.177 E0.01287 ; skirt
G1 X170.848 Y54.813 E0.02182 ; skirt
G1 X171.426 Y55.704 E0.02909 ; skirt
G1 X171.674 Y56.137 E0.01365 ; skirt
G1 X171.983 Y56.746 E0.01871 ; skirt
G1 X172.282 Y57.413 E0.02000 ; skirt
G1 X172.639 Y58.374 E0.02807 ; skirt
G1 X172.964 Y59.546 E0.03331 ; skirt
G1 X173.173 Y60.695 E0.03195 ; skirt
G1 X173.284 Y61.942 E0.03428 ; skirt
G1 X173.253 Y137.784 E2.07649 ; skirt
G1 X173.228 Y138.318 E0.01463 ; skirt
G1 X173.141 Y139.188 E0.02394 ; skirt
G1 X172.904 Y140.476 E0.03585 ; skirt
G1 X172.539 Y141.737 E0.03595 ; skirt
G1 X172.225 Y142.556 E0.02401 ; skirt
G1 X172.022 Y143.019 E0.01385 ; skirt
G1 X171.466 Y144.088 E0.03298 ; skirt
G1 X171.017 Y144.807 E0.02321 ; skirt
G1 X170.693 Y145.267 E0.01541 ; skirt
G1 X170.163 Y145.950 E0.02367 ; skirt
G1 X169.581 Y146.597 E0.02383 ; skirt
G1 X169.200 Y146.982 E0.01482 ; skirt
G1 X168.621 Y147.509 E0.02142 ; skirt
G1 X168.231 Y147.831 E0.01385 ; skirt
G1 X167.592 Y148.309 E0.02187 ; skirt
G1 X166.712 Y148.872 E0.02859 ; skirt
G1 X166.077 Y149.224 E0.01989 ; skirt
G1 X165.456 Y149.527 E0.01891 ; skirt
G1 X165.018 Y149.716 E0.01307 ; skirt
G1 X164.027 Y150.079 E0.02889 ; skirt
G1 X162.876 Y150.393 E0.03267 ; skirt
G1 X161.727 Y150.598 E0.03195 ; skirt
G1 X160.564 Y150.702 E0.03196 ; skirt
G1 X99.695 Y150.791 E1.66653 ; skirt
G1 X99.226 Y150.770 E0.01287 ; skirt
G1 X98.355 Y150.693 E0.02394 ; skirt
G1 X97.065 Y150.467 E0.03585 ; skirt
G1 X95.811 Y150.118 E0.03563 ; skirt
G1 X94.993 Y149.815 E0.02388 ; skirt
G1 X94.496 Y149.600 E0.01482 ; skirt
G1 X93.804 Y149.262 E0.02110 ; skirt
G1 X93.331 Y148.998 E0.01482 ; skirt
G1 X92.590 Y148.539 E0.02385 ; skirt
G1 X91.880 Y148.023 E0.02404 ; skirt
G1 X91.440 Y147.672 E0.01541 ; skirt
G1 X90.808 Y147.104 E0.02327 ; skirt
G1 X89.956 Y146.209 E0.03383 ; skirt
G1 X89.655 Y145.848 E0.01287 ; skirt
G1 X89.153 Y145.187 E0.02272 ; skirt
G1 X88.513 Y144.193 E0.03236 ; skirt
G1 X87.939 Y143.093 E0.03399 ; skirt
G1 X87.545 Y142.142 E0.02817 ; skirt
G1 X87.305 Y141.439 E0.02033 ; skirt
G1 X87.115 Y140.776 E0.01890 ; skirt
G1 X87.001 Y140.276 E0.01404 ; skirt
G1 X86.817 Y139.220 E0.02933 ; skirt
G1 X86.738 Y138.418 E0.02208 ; skirt
G1 X86.713 Y137.913 E0.01385 ; skirt
G1 X86.712 Y62.099 E2.07569 ; skirt
G1 X86.740 Y61.559 E0.01482 ; skirt
G1 X86.836 Y60.632 E0.02550 ; skirt
G1 X87.000 Y59.722 E0.02532 ; skirt
G1 X87.123 Y59.195 E0.01482 ; skirt
G1 X87.349 Y58.414 E0.02225 ; skirt
G1 X87.535 Y57.883 E0.01541 ; skirt
G1 X87.868 Y57.060 E0.02430 ; skirt
G1 X88.289 Y56.208 E0.02603 ; skirt
M204 S100 ; adjust acceleration
G1 X88.905 Y56.451 F2700.000 ; move to first skirt point
M204 S50 ; adjust acceleration
G1 F2025
G1 X89.416 Y55.600 E0.02717 ; skirt
G1 X89.727 Y55.142 E0.01516 ; skirt
G1 X90.296 Y54.405 E0.02549 ; skirt
G1 X90.891 Y53.743 E0.02437 ; skirt
G1 X91.283 Y53.352 E0.01516 ; skirt
G1 X91.979 Y52.734 E0.02549 ; skirt
G1 X92.715 Y52.175 E0.02531 ; skirt
G1 X93.187 Y51.860 E0.01553 ; skirt
G1 X93.927 Y51.417 E0.02362 ; skirt
G1 X94.755 Y51.004 E0.02532 ; skirt
G1 X95.251 Y50.791 E0.01478 ; skirt
G1 X96.171 Y50.457 E0.02679 ; skirt
G1 X97.134 Y50.191 E0.02736 ; skirt
G1 X98.042 Y50.017 E0.02531 ; skirt
G1 X98.611 Y49.941 E0.01572 ; skirt
G1 X99.588 Y49.869 E0.02683 ; skirt
G1 X160.201 Y49.866 E1.65951 ; skirt
G1 X160.679 Y49.881 E0.01310 ; skirt
G1 X161.772 Y49.987 E0.03006 ; skirt
G1 X162.987 Y50.221 E0.03388 ; skirt
G1 X164.111 Y50.550 E0.03206 ; skirt
G1 X164.878 Y50.843 E0.02248 ; skirt
G1 X165.370 Y51.063 E0.01474 ; skirt
G1 X166.098 Y51.431 E0.02235 ; skirt
G1 X166.807 Y51.856 E0.02262 ; skirt
G1 X167.224 Y52.131 E0.01366 ; skirt
G1 X167.796 Y52.556 E0.01951 ; skirt
G1 X168.193 Y52.879 E0.01404 ; skirt
G1 X168.794 Y53.425 E0.02222 ; skirt
G1 X169.582 Y54.261 E0.03144 ; skirt
G1 X170.323 Y55.210 E0.03298 ; skirt
G1 X170.869 Y56.057 E0.02760 ; skirt
G1 X171.100 Y56.460 E0.01273 ; skirt
G1 X171.399 Y57.051 E0.01812 ; skirt
G1 X171.675 Y57.669 E0.01853 ; skirt
G1 X172.012 Y58.574 E0.02645 ; skirt
G1 X172.322 Y59.695 E0.03185 ; skirt
G1 X172.521 Y60.786 E0.03035 ; skirt
G1 X172.627 Y61.985 E0.03296 ; skirt
G1 X172.594 Y137.779 E2.07515 ; skirt
G1 X172.570 Y138.277 E0.01366 ; skirt
G1 X172.487 Y139.114 E0.02304 ; skirt
G1 X172.261 Y140.332 E0.03391 ; skirt
G1 X171.916 Y141.525 E0.03400 ; skirt
G1 X171.613 Y142.313 E0.02311 ; skirt
G1 X171.423 Y142.744 E0.01291 ; skirt
G1 X170.898 Y143.754 E0.03116 ; skirt
G1 X170.470 Y144.441 E0.02215 ; skirt
G1 X170.163 Y144.877 E0.01460 ; skirt
G1 X169.653 Y145.533 E0.02277 ; skirt
G1 X169.091 Y146.156 E0.02294 ; skirt
G1 X168.741 Y146.511 E0.01366 ; skirt
G1 X168.178 Y147.021 E0.02081 ; skirt
G1 X167.819 Y147.317 E0.01273 ; skirt
G1 X167.203 Y147.777 E0.02105 ; skirt
G1 X166.362 Y148.314 E0.02731 ; skirt
G1 X165.776 Y148.638 E0.01834 ; skirt
G1 X165.179 Y148.930 E0.01821 ; skirt
G1 X164.764 Y149.108 E0.01235 ; skirt
G1 X163.830 Y149.451 E0.02722 ; skirt
G1 X162.730 Y149.750 E0.03123 ; skirt
G1 X161.632 Y149.946 E0.03054 ; skirt
G1 X160.513 Y150.045 E0.03074 ; skirt
G1 X99.707 Y150.133 E1.66481 ; skirt
G1 X98.435 Y150.039 E0.03492 ; skirt
G1 X97.209 Y149.824 E0.03409 ; skirt
G1 X96.023 Y149.494 E0.03370 ; skirt
G1 X95.236 Y149.203 E0.02298 ; skirt
G1 X94.772 Y149.002 E0.01385 ; skirt
G1 X94.111 Y148.680 E0.02013 ; skirt
G1 X93.669 Y148.433 E0.01385 ; skirt
G1 X92.956 Y147.991 E0.02296 ; skirt
G1 X92.267 Y147.491 E0.02332 ; skirt
G1 X91.862 Y147.166 E0.01422 ; skirt
G1 X91.248 Y146.615 E0.02258 ; skirt
G1 X90.435 Y145.758 E0.03234 ; skirt
G1 X89.682 Y144.795 E0.03346 ; skirt
G1 X89.075 Y143.850 E0.03075 ; skirt
G1 X88.531 Y142.803 E0.03231 ; skirt
G1 X88.155 Y141.895 E0.02691 ; skirt
G1 X87.995 Y141.444 E0.01310 ; skirt
G1 X87.806 Y140.805 E0.01825 ; skirt
G1 X87.645 Y140.141 E0.01871 ; skirt
G1 X87.471 Y139.139 E0.02784 ; skirt
G1 X87.394 Y138.367 E0.02125 ; skirt
