; generated by Slic3r 1.33.8-prusa3d-win64 on 2017-03-22 at 18:54:32

; external perimeters extrusion width = 0.40mm
; perimeters extrusion width = 0.67mm
; infill extrusion width = 0.67mm
; solid infill extrusion width = 0.67mm
; top infill extrusion width = 0.67mm
; support material extrusion width = 0.40mm

M190 S90 ; set bed temperature and wait for it to be reached
M104 S220 ; set temperature
G28 X Y ; home X and Y
G29 ; autolevel
G1 Z5 F5000 ; lift nozzle

M109 S220 ; set temperature and wait for it to be reached
G21 ; set units to millimeters
G90 ; use absolute coordinates
M83 ; use relative distances for extrusion
G1 E-7.50000 F6000.00000 ; retract
G1 Z1.000 F2700.000 ; lift Z
G1 X75.522 Y70.284 F2700.000 ; move to first skirt point
G1 Z0.200 F2700.000 ; restore layer Z
G1 E7.00000 F6000.00000 ; unretract
M204 S50 ; adjust acceleration
G1 F2025
G1 X76.209 Y69.614 E0.05014 ; skirt
G1 X76.954 Y69.021 E0.04974 ; skirt
G1 X77.761 Y68.501 E0.05014 ; skirt
G1 X78.616 Y68.066 E0.05014 ; skirt
G1 X79.511 Y67.719 E0.05014 ; skirt
G1 X80.436 Y67.463 E0.05014 ; skirt
G1 X81.374 Y67.304 E0.04974 ; skirt
G1 X82.332 Y67.238 E0.05014 ; skirt
G1 X177.607 Y67.237 E4.97763 ; skirt
G1 X178.185 Y67.261 E0.03025 ; skirt
G1 X178.761 Y67.321 E0.03025 ; skirt
G1 X179.325 Y67.413 E0.02985 ; skirt
G1 X179.890 Y67.542 E0.03025 ; skirt
G1 X180.438 Y67.702 E0.02985 ; skirt
G1 X180.983 Y67.897 E0.03025 ; skirt
G1 X181.508 Y68.122 E0.02985 ; skirt
G1 X182.026 Y68.382 E0.03025 ; skirt
G1 X182.770 Y68.830 E0.04537 ; skirt
G1 X183.470 Y69.343 E0.04537 ; skirt
G1 X184.121 Y69.919 E0.04537 ; skirt
G1 X184.716 Y70.551 E0.04537 ; skirt
G1 X185.251 Y71.235 E0.04537 ; skirt
G1 X185.722 Y71.964 E0.04537 ; skirt
G1 X186.124 Y72.734 E0.04537 ; skirt
G1 X186.454 Y73.537 E0.04537 ; skirt
G1 X186.658 Y74.176 E0.03503 ; skirt
G1 X186.815 Y74.820 E0.03463 ; skirt
G1 X186.927 Y75.473 E0.03463 ; skirt
G1 X186.994 Y76.140 E0.03503 ; skirt
G1 X187.013 Y76.719 E0.03025 ; skirt
G1 X187.013 Y82.273 E0.29016 ; skirt
G1 X186.969 Y83.163 E0.04656 ; skirt
G1 X182.950 Y124.318 E2.16039 ; skirt
G1 X182.804 Y125.221 E0.04775 ; skirt
G1 X182.574 Y126.098 E0.04736 ; skirt
G1 X182.259 Y126.956 E0.04775 ; skirt
G1 X181.866 Y127.773 E0.04736 ; skirt
G1 X181.560 Y128.299 E0.03184 ; skirt
G1 X181.215 Y128.811 E0.03224 ; skirt
G1 X180.838 Y129.300 E0.03224 ; skirt
G1 X180.431 Y129.763 E0.03224 ; skirt
G1 X179.994 Y130.199 E0.03224 ; skirt
G1 X179.530 Y130.606 E0.03224 ; skirt
G1 X179.040 Y130.981 E0.03224 ; skirt
G1 X178.527 Y131.325 E0.03224 ; skirt
G1 X177.993 Y131.634 E0.03224 ; skirt
G1 X177.440 Y131.908 E0.03224 ; skirt
G1 X176.878 Y132.142 E0.03184 ; skirt
G1 X176.294 Y132.343 E0.03224 ; skirt
G1 X175.699 Y132.505 E0.03224 ; skirt
G1 X175.094 Y132.628 E0.03224 ; skirt
G1 X174.482 Y132.712 E0.03224 ; skirt
G1 X173.867 Y132.756 E0.03224 ; skirt
G1 X86.389 Y132.763 E4.57029 ; skirt
G1 X85.818 Y132.739 E0.02985 ; skirt
G1 X85.242 Y132.679 E0.03025 ; skirt
G1 X84.678 Y132.587 E0.02985 ; skirt
G1 X84.121 Y132.460 E0.02985 ; skirt
G1 X83.565 Y132.298 E0.03025 ; skirt
G1 X83.027 Y132.105 E0.02985 ; skirt
G1 X82.502 Y131.881 E0.02985 ; skirt
G1 X81.984 Y131.621 E0.03025 ; skirt
G1 X81.489 Y131.335 E0.02985 ; skirt
G1 X81.007 Y131.015 E0.03025 ; skirt
G1 X80.551 Y130.671 E0.02985 ; skirt
G1 X80.110 Y130.295 E0.03025 ; skirt
G1 X79.693 Y129.893 E0.03025 ; skirt
G1 X79.302 Y129.466 E0.03025 ; skirt
G1 X78.942 Y129.023 E0.02985 ; skirt
G1 X78.604 Y128.552 E0.03025 ; skirt
G1 X78.300 Y128.068 E0.02985 ; skirt
G1 X78.022 Y127.560 E0.03025 ; skirt
G1 X77.776 Y127.037 E0.03025 ; skirt
G1 X77.562 Y126.499 E0.03025 ; skirt
G1 X77.381 Y125.949 E0.03025 ; skirt
G1 X77.233 Y125.389 E0.03025 ; skirt
G1 X77.122 Y124.828 E0.02985 ; skirt
G1 X77.043 Y124.255 E0.03025 ; skirt
G1 X73.032 Y83.174 E2.15643 ; skirt
G1 X72.991 Y82.528 E0.03383 ; skirt
G1 X72.989 Y76.521 E0.31382 ; skirt
G1 X73.046 Y75.685 E0.04378 ; skirt
G1 X73.178 Y74.850 E0.04418 ; skirt
G1 X73.327 Y74.228 E0.03343 ; skirt
G1 X73.520 Y73.610 E0.03383 ; skirt
G1 X73.751 Y73.013 E0.03343 ; skirt
G1 X74.022 Y72.433 E0.03343 ; skirt
G1 X74.332 Y71.873 E0.03343 ; skirt
G1 X74.678 Y71.335 E0.03343 ; skirt
G1 X75.065 Y70.815 E0.03383 ; skirt
G1 X75.481 Y70.328 E0.03348 ; skirt
M204 S100 ; adjust acceleration
G1 X75.964 Y70.731 F2700.000 ; move to first skirt point
M204 S50 ; adjust acceleration
G1 F2025
G1 X76.605 Y70.102 E0.04692 ; skirt
G1 X77.307 Y69.541 E0.04692 ; skirt
G1 X78.061 Y69.053 E0.04692 ; skirt
G1 X78.860 Y68.645 E0.04692 ; skirt
G1 X79.697 Y68.319 E0.04692 ; skirt
G1 X80.563 Y68.079 E0.04692 ; skirt
G1 X81.448 Y67.928 E0.04692 ; skirt
G1 X82.351 Y67.866 E0.04730 ; skirt
G1 X177.596 Y67.866 E4.97604 ; skirt
G1 X178.125 Y67.887 E0.02770 ; skirt
G1 X178.660 Y67.941 E0.02808 ; skirt
G1 X179.191 Y68.027 E0.02808 ; skirt
G1 X179.715 Y68.146 E0.02808 ; skirt
G1 X180.231 Y68.295 E0.02808 ; skirt
G1 X180.738 Y68.476 E0.02808 ; skirt
G1 X181.232 Y68.687 E0.02808 ; skirt
G1 X181.713 Y68.927 E0.02808 ; skirt
G1 X182.414 Y69.347 E0.04269 ; skirt
G1 X183.079 Y69.835 E0.04307 ; skirt
G1 X183.696 Y70.382 E0.04307 ; skirt
G1 X184.259 Y70.983 E0.04307 ; skirt
G1 X184.765 Y71.635 E0.04307 ; skirt
G1 X185.204 Y72.324 E0.04269 ; skirt
G1 X185.581 Y73.057 E0.04307 ; skirt
G1 X185.889 Y73.822 E0.04307 ; skirt
G1 X186.070 Y74.405 E0.03193 ; skirt
G1 X186.212 Y75.007 E0.03231 ; skirt
G1 X186.312 Y75.617 E0.03231 ; skirt
G1 X186.370 Y76.233 E0.03231 ; skirt
G1 X186.385 Y76.726 E0.02577 ; skirt
G1 X186.385 Y82.309 E0.29166 ; skirt
G1 X186.344 Y83.103 E0.04154 ; skirt
G1 X182.327 Y124.238 E2.15932 ; skirt
G1 X182.191 Y125.081 E0.04461 ; skirt
G1 X181.977 Y125.900 E0.04423 ; skirt
G1 X181.687 Y126.695 E0.04423 ; skirt
G1 X181.318 Y127.465 E0.04461 ; skirt
G1 X181.030 Y127.962 E0.03000 ; skirt
G1 X180.709 Y128.439 E0.03000 ; skirt
G1 X180.359 Y128.894 E0.03000 ; skirt
G1 X179.975 Y129.331 E0.03039 ; skirt
G1 X179.569 Y129.737 E0.03000 ; skirt
G1 X179.131 Y130.120 E0.03039 ; skirt
G1 X178.670 Y130.474 E0.03039 ; skirt
G1 X178.192 Y130.793 E0.03000 ; skirt
G1 X177.695 Y131.081 E0.03000 ; skirt
G1 X177.174 Y131.338 E0.03039 ; skirt
G1 X176.644 Y131.559 E0.03000 ; skirt
G1 X176.093 Y131.747 E0.03039 ; skirt
G1 X175.539 Y131.897 E0.03000 ; skirt
G1 X174.969 Y132.012 E0.03039 ; skirt
G1 X174.400 Y132.089 E0.03000 ; skirt
G1 X173.819 Y132.129 E0.03039 ; skirt
G1 X86.400 Y132.134 E4.56721 ; skirt
G1 X85.870 Y132.112 E0.02770 ; skirt
G1 X85.336 Y132.058 E0.02808 ; skirt
G1 X84.812 Y131.973 E0.02770 ; skirt
G1 X84.288 Y131.854 E0.02808 ; skirt
G1 X83.772 Y131.705 E0.02808 ; skirt
G1 X83.266 Y131.524 E0.02808 ; skirt
G1 X82.771 Y131.313 E0.02808 ; skirt
G1 X82.297 Y131.076 E0.02770 ; skirt
G1 X81.831 Y130.808 E0.02808 ; skirt
G1 X81.377 Y130.507 E0.02847 ; skirt
G1 X80.947 Y130.184 E0.02808 ; skirt
G1 X80.538 Y129.835 E0.02808 ; skirt
G1 X80.151 Y129.462 E0.02808 ; skirt
G1 X79.782 Y129.061 E0.02847 ; skirt
G1 X79.443 Y128.644 E0.02808 ; skirt
G1 X79.126 Y128.202 E0.02847 ; skirt
G1 X78.840 Y127.746 E0.02808 ; skirt
G1 X78.579 Y127.268 E0.02847 ; skirt
G1 X78.350 Y126.782 E0.02808 ; skirt
G1 X78.152 Y126.282 E0.02808 ; skirt
G1 X77.983 Y125.772 E0.02808 ; skirt
G1 X77.845 Y125.245 E0.02847 ; skirt
G1 X77.740 Y124.718 E0.02808 ; skirt
G1 X77.667 Y124.185 E0.02808 ; skirt
G1 X73.657 Y83.113 E2.15599 ; skirt
G1 X73.620 Y82.540 E0.03000 ; skirt
G1 X73.617 Y76.559 E0.31252 ; skirt
G1 X73.666 Y75.802 E0.03962 ; skirt
G1 X73.780 Y75.045 E0.04000 ; skirt
G1 X73.916 Y74.457 E0.03154 ; skirt
G1 X74.092 Y73.879 E0.03154 ; skirt
G1 X74.306 Y73.315 E0.03154 ; skirt
G1 X74.562 Y72.759 E0.03193 ; skirt
G1 X74.851 Y72.230 E0.03154 ; skirt
G1 X75.176 Y71.721 E0.03154 ; skirt
G1 X75.534 Y71.235 E0.03154 ; skirt
G1 X75.924 Y70.775 E0.03149 ; skirt
M204 S100 ; adjust acceleration
G1 X76.395 Y71.191 F2700.000 ; move to first skirt point
M204 S50 ; adjust acceleration
G1 F2025
G1 X76.989 Y70.602 E0.04375 ; skirt
G1 X77.646 Y70.071 E0.04412 ; skirt
G1 X78.347 Y69.614 E0.04375 ; skirt
G1 X79.098 Y69.227 E0.04412 ; skirt
G1 X79.884 Y68.919 E0.04412 ; skirt
G1 X80.698 Y68.693 E0.04412 ; skirt
G1 X81.523 Y68.551 E0.04375 ; skirt
G1 X82.365 Y68.494 E0.04412 ; skirt
G1 X177.578 Y68.494 E4.97438 ; skirt
G1 X178.075 Y68.513 E0.02596 ; skirt
G1 X178.569 Y68.563 E0.02596 ; skirt
G1 X179.059 Y68.642 E0.02596 ; skirt
G1 X179.544 Y68.750 E0.02596 ; skirt
G1 X180.022 Y68.888 E0.02596 ; skirt
G1 X180.490 Y69.054 E0.02596 ; skirt
G1 X180.948 Y69.248 E0.02596 ; skirt
G1 X181.399 Y69.472 E0.02633 ; skirt
G1 X182.063 Y69.869 E0.04041 ; skirt
G1 X182.687 Y70.326 E0.04041 ; skirt
G1 X183.265 Y70.839 E0.04041 ; skirt
G1 X183.798 Y71.410 E0.04078 ; skirt
G1 X184.270 Y72.023 E0.04041 ; skirt
G1 X184.686 Y72.683 E0.04078 ; skirt
G1 X185.035 Y73.374 E0.04041 ; skirt
G1 X185.320 Y74.100 E0.04078 ; skirt
G1 X185.484 Y74.644 E0.02966 ; skirt
G1 X185.608 Y75.191 E0.02929 ; skirt
G1 X185.695 Y75.745 E0.02929 ; skirt
G1 X185.745 Y76.310 E0.02966 ; skirt
G1 X185.756 Y82.335 E0.31477 ; skirt
G1 X185.718 Y83.044 E0.03708 ; skirt
G1 X181.703 Y124.158 E2.15823 ; skirt
G1 X181.580 Y124.936 E0.04115 ; skirt
G1 X181.382 Y125.699 E0.04115 ; skirt
G1 X181.113 Y126.439 E0.04115 ; skirt
G1 X180.774 Y127.150 E0.04115 ; skirt
G1 X180.508 Y127.611 E0.02781 ; skirt
G1 X180.208 Y128.059 E0.02818 ; skirt
G1 X179.880 Y128.487 E0.02818 ; skirt
G1 X179.524 Y128.893 E0.02818 ; skirt
G1 X179.143 Y129.275 E0.02818 ; skirt
G1 X178.737 Y129.630 E0.02818 ; skirt
G1 X178.310 Y129.959 E0.02818 ; skirt
G1 X177.861 Y130.259 E0.02818 ; skirt
G1 X177.394 Y130.529 E0.02818 ; skirt
G1 X176.911 Y130.768 E0.02818 ; skirt
G1 X176.413 Y130.975 E0.02818 ; skirt
G1 X175.902 Y131.149 E0.02818 ; skirt
G1 X175.381 Y131.289 E0.02818 ; skirt
G1 X174.852 Y131.395 E0.02818 ; skirt
G1 X174.317 Y131.466 E0.02818 ; skirt
G1 X173.779 Y131.502 E0.02818 ; skirt
G1 X86.418 Y131.506 E4.56418 ; skirt
G1 X85.921 Y131.486 E0.02596 ; skirt
G1 X85.427 Y131.436 E0.02596 ; skirt
G1 X84.937 Y131.357 E0.02596 ; skirt
G1 X84.452 Y131.248 E0.02596 ; skirt
G1 X83.975 Y131.110 E0.02596 ; skirt
G1 X83.506 Y130.944 E0.02596 ; skirt
G1 X83.049 Y130.749 E0.02596 ; skirt
G1 X82.604 Y130.528 E0.02596 ; skirt
G1 X82.174 Y130.280 E0.02596 ; skirt
G1 X81.753 Y130.003 E0.02633 ; skirt
G1 X81.350 Y129.701 E0.02633 ; skirt
G1 X80.966 Y129.374 E0.02633 ; skirt
G1 X80.607 Y129.030 E0.02596 ; skirt
G1 X80.266 Y128.660 E0.02633 ; skirt
G1 X79.947 Y128.269 E0.02633 ; skirt
G1 X79.653 Y127.860 E0.02633 ; skirt
G1 X79.385 Y127.433 E0.02633 ; skirt
G1 X79.143 Y126.991 E0.02633 ; skirt
G1 X78.931 Y126.542 E0.02596 ; skirt
G1 X78.744 Y126.074 E0.02633 ; skirt
G1 X78.587 Y125.595 E0.02633 ; skirt
G1 X78.458 Y125.108 E0.02633 ; skirt
G1 X78.360 Y124.614 E0.02633 ; skirt
G1 X78.292 Y124.114 E0.02633 ; skirt
G1 X74.282 Y83.052 E2.15548 ; skirt
G1 X74.249 Y82.550 E0.02633 ; skirt
G1 X74.245 Y76.601 E0.31078 ; skirt
G1 X74.285 Y75.921 E0.03559 ; skirt
G1 X74.383 Y75.239 E0.03597 ; skirt
G1 X74.506 Y74.685 E0.02966 ; skirt
G1 X74.664 Y74.147 E0.02929 ; skirt
G1 X74.859 Y73.621 E0.02929 ; skirt
G1 X75.092 Y73.104 E0.02966 ; skirt
G1 X75.360 Y72.603 E0.02966 ; skirt
G1 X75.658 Y72.128 E0.02929 ; skirt
G1 X75.992 Y71.669 E0.02966 ; skirt
G1 X76.354 Y71.236 E0.02950 ; skirt
M204 S100 ; adjust acceleration
G1 X76.856 Y71.618 F2700.000 ; move to first skirt point
M204 S50 ; adjust acceleration
G1 F2025
G1 X77.408 Y71.070 E0.04062 ; skirt
G1 X78.013 Y70.581 E0.04062 ; skirt
G1 X78.664 Y70.156 E0.04062 ; skirt
G1 X79.361 Y69.797 E0.04098 ; skirt
G1 X80.085 Y69.514 E0.04062 ; skirt
G1 X80.834 Y69.306 E0.04062 ; skirt
G1 X81.601 Y69.175 E0.04062 ; skirt
G1 X82.383 Y69.123 E0.04098 ; skirt
G1 X177.568 Y69.122 E4.97292 ; skirt
G1 X178.025 Y69.140 E0.02388 ; skirt
G1 X178.487 Y69.186 E0.02424 ; skirt
G1 X178.938 Y69.258 E0.02388 ; skirt
G1 X179.391 Y69.360 E0.02424 ; skirt
G1 X179.830 Y69.486 E0.02388 ; skirt
G1 X180.261 Y69.639 E0.02388 ; skirt
G1 X180.682 Y69.817 E0.02388 ; skirt
G1 X181.097 Y70.023 E0.02424 ; skirt
G1 X181.718 Y70.394 E0.03777 ; skirt
G1 X182.306 Y70.826 E0.03813 ; skirt
G1 X182.850 Y71.313 E0.03813 ; skirt
G1 X183.345 Y71.849 E0.03813 ; skirt
G1 X183.783 Y72.424 E0.03777 ; skirt
G1 X184.168 Y73.044 E0.03813 ; skirt
G1 X184.491 Y73.699 E0.03813 ; skirt
G1 X184.751 Y74.381 E0.03813 ; skirt
G1 X184.894 Y74.872 E0.02673 ; skirt
G1 X185.003 Y75.372 E0.02673 ; skirt
G1 X185.078 Y75.878 E0.02673 ; skirt
G1 X185.120 Y76.388 E0.02673 ; skirt
G1 X185.127 Y82.366 E0.31232 ; skirt
G1 X185.093 Y82.986 E0.03243 ; skirt
G1 X181.079 Y124.086 E2.15751 ; skirt
G1 X180.966 Y124.800 E0.03777 ; skirt
G1 X180.784 Y125.507 E0.03813 ; skirt
G1 X180.537 Y126.187 E0.03777 ; skirt
G1 X180.224 Y126.846 E0.03813 ; skirt
G1 X179.975 Y127.277 E0.02602 ; skirt
G1 X179.699 Y127.692 E0.02602 ; skirt
G1 X179.396 Y128.087 E0.02602 ; skirt
G1 X179.068 Y128.461 E0.02602 ; skirt
G1 X178.716 Y128.814 E0.02602 ; skirt
G1 X178.341 Y129.142 E0.02602 ; skirt
G1 X177.947 Y129.446 E0.02602 ; skirt
G1 X177.527 Y129.727 E0.02638 ; skirt
G1 X177.096 Y129.976 E0.02602 ; skirt
G1 X176.649 Y130.196 E0.02602 ; skirt
G1 X176.189 Y130.387 E0.02602 ; skirt
G1 X175.711 Y130.550 E0.02638 ; skirt
G1 X175.230 Y130.679 E0.02602 ; skirt
G1 X174.742 Y130.776 E0.02602 ; skirt
G1 X174.241 Y130.842 E0.02638 ; skirt
G1 X173.744 Y130.874 E0.02602 ; skirt
G1 X86.428 Y130.878 E4.56183 ; skirt
G1 X85.971 Y130.860 E0.02388 ; skirt
G1 X85.516 Y130.814 E0.02388 ; skirt
G1 X85.065 Y130.742 E0.02388 ; skirt
G1 X84.612 Y130.640 E0.02424 ; skirt
G1 X84.173 Y130.514 E0.02388 ; skirt
G1 X83.742 Y130.361 E0.02388 ; skirt
G1 X83.321 Y130.183 E0.02388 ; skirt
G1 X82.912 Y129.980 E0.02388 ; skirt
G1 X82.509 Y129.749 E0.02424 ; skirt
G1 X82.122 Y129.495 E0.02424 ; skirt
G1 X81.750 Y129.217 E0.02424 ; skirt
G1 X81.391 Y128.912 E0.02459 ; skirt
G1 X81.056 Y128.591 E0.02424 ; skirt
G1 X80.737 Y128.245 E0.02459 ; skirt
G1 X80.444 Y127.885 E0.02424 ; skirt
G1 X80.174 Y127.508 E0.02424 ; skirt
G1 X79.927 Y127.116 E0.02424 ; skirt
G1 X79.704 Y126.709 E0.02424 ; skirt
G1 X79.506 Y126.289 E0.02424 ; skirt
G1 X79.332 Y125.852 E0.02459 ; skirt
G1 X79.187 Y125.411 E0.02424 ; skirt
G1 X79.068 Y124.956 E0.02459 ; skirt
G1 X78.978 Y124.500 E0.02424 ; skirt
G1 X78.916 Y124.041 E0.02424 ; skirt
G1 X74.878 Y82.556 E2.17762 ; skirt
G1 X74.873 Y76.634 E0.30938 ; skirt
G1 X74.907 Y76.021 E0.03208 ; skirt
G1 X74.990 Y75.413 E0.03208 ; skirt
G1 X75.100 Y74.899 E0.02744 ; skirt
G1 X75.247 Y74.388 E0.02780 ; skirt
G1 X75.426 Y73.894 E0.02744 ; skirt
G1 X75.643 Y73.408 E0.02780 ; skirt
G1 X75.889 Y72.944 E0.02744 ; skirt
G1 X76.170 Y72.492 E0.02780 ; skirt
G1 X76.479 Y72.067 E0.02744 ; skirt
G1 X76.816 Y71.662 E0.02752 ; skirt
M204 S100 ; adjust acceleration
G1 E-7.50000 F6000.00000 ; retract
G1 Z1.200 F2700.000 ; lift Z
G1 X101.191 Y88.587 F2700.000 ; move to first brim point
G1 Z0.200 F2700.000 ; restore layer Z
G1 E7.00000 F6000.00000 ; unretract
M204 S50 ; adjust acceleration
G1 F2025
G1 X100.823 Y88.219 E0.02719 ; brim
G1 X80.028 Y88.219 E1.08645 ; brim
G1 X76.531 Y84.722 E0.25835 ; brim
G1 X76.531 Y74.278 E0.54569 ; brim
G1 X80.028 Y70.781 E0.25835 ; brim
G1 X179.972 Y70.781 E5.22161 ; brim
G1 X183.469 Y74.278 E0.25835 ; brim
G1 X183.469 Y84.722 E0.54569 ; brim
G1 X179.972 Y88.219 E0.25835 ; brim
G1 X161.303 Y88.219 E0.97540 ; brim
G1 X160.935 Y88.587 E0.02719 ; brim
G1 X160.935 Y106.913 E0.95743 ; brim
G1 X161.303 Y107.281 E0.02719 ; brim
G1 X175.969 Y107.281 E0.76626 ; brim
G1 X179.466 Y110.778 E0.25835 ; brim
G1 X179.466 Y125.722 E0.78079 ; brim
G1 X175.969 Y129.219 E0.25835 ; brim
G1 X84.031 Y129.219 E4.80333 ; brim
G1 X80.534 Y125.722 E0.25835 ; brim
G1 X80.534 Y110.778 E0.78079 ; brim
G1 X84.031 Y107.281 E0.25835 ; brim
G1 X100.823 Y107.281 E0.87731 ; brim
G1 X101.191 Y106.913 E0.02719 ; brim
G1 X101.191 Y88.647 E0.95430 ; brim
M204 S100 ; adjust acceleration
G1 E-7.50000 F6000.00000 ; retract
G1 Z1.200 F2700.000 ; lift Z
G1 X101.451 Y107.909 F2700.000 ; move to first brim point
G1 Z0.200 F2700.000 ; restore layer Z
G1 E7.00000 F6000.00000 ; unretract
